pot-mix-outline.svg

<svg fill="currentColor" viewBox="0 0 24 24"><path d="M14.6 9 18 3.1l1.7 1L16.9 9zm1.7 1H21v2h-2v7c0 1.1-.9 2-2 2H7c-1.1 0-2-.9-2-2v-7H3v-2zm.7 2H7v7h10z"/></svg>

<svg  viewBox="0 0 24 24" fill="currentColor"><path  d="M14.6 9L18 3.1L19.7 4.1L16.9 9H14.6M16.3 10H21V12H19V19C19 20.1 18.1 21 17 21H7C5.9 21 5 20.1 5 19V12H3V10H16.3M17 12H7V19H17V12Z"/></svg>
